( Made using CamBam - http://www.cambam.co.uk )
( support_CIS 6/28/2023 9:17:40 PM )
( T1 : 1.0 )
G21 G90 G64 G40
G0 Z3.0
( T1 : 1.0 )
T1 M6
( Contour1 )
G17
M3 S25000
G0 X18.15 Y5.6
G0 Z0.1
G1 F300.0 Z-0.4
G2 F800.0 X17.475 Y5.2103 I-0.45 J0.0
G2 Y5.9897 I0.225 J0.3897
G2 X18.15 Y5.6 I0.225 J-0.3897
G1 F300.0 Z-0.8
G2 F800.0 X17.475 Y5.2103 I-0.45 J0.0
G2 Y5.9897 I0.225 J0.3897
G2 X18.15 Y5.6 I0.225 J-0.3897
G1 F300.0 Z-1.2
G2 F800.0 X17.475 Y5.2103 I-0.45 J0.0
G2 Y5.9897 I0.225 J0.3897
G2 X18.15 Y5.6 I0.225 J-0.3897
G0 Z3.0
G0 X28.35
G0 Z0.1
G1 F300.0 Z-0.4
G2 F800.0 X28.575 Y5.9897 I0.45 J0.0
G2 X29.25 Y5.6 I0.225 J-0.3897
G2 X28.575 Y5.2103 I-0.45 J0.0
G2 X28.35 Y5.6 I0.225 J0.3897
G1 F300.0 Z-0.8
G2 F800.0 X28.575 Y5.9897 I0.45 J0.0
G2 X29.25 Y5.6 I0.225 J-0.3897
G2 X28.575 Y5.2103 I-0.45 J0.0
G2 X28.35 Y5.6 I0.225 J0.3897
G1 F300.0 Z-1.2
G2 F800.0 X28.575 Y5.9897 I0.45 J0.0
G2 X29.25 Y5.6 I0.225 J-0.3897
G2 X28.575 Y5.2103 I-0.45 J0.0
G2 X28.35 Y5.6 I0.225 J0.3897
G0 Z3.0
G0 X28.7855 Y19.1502
G0 Z0.1
G1 F300.0 Z-0.4
G2 F800.0 X28.575 Y19.2103 I0.0145 J0.4498
G2 Y19.9897 I0.225 J0.3897
G2 X29.25 Y19.6 I0.225 J-0.3897
G2 X28.7855 Y19.1502 I-0.45 J0.0
G1 F300.0 Z-0.8
G2 F800.0 X28.575 Y19.2103 I0.0145 J0.4498
G2 Y19.9897 I0.225 J0.3897
G2 X29.25 Y19.6 I0.225 J-0.3897
G2 X28.7855 Y19.1502 I-0.45 J0.0
G1 F300.0 Z-1.2
G2 F800.0 X28.575 Y19.2103 I0.0145 J0.4498
G2 Y19.9897 I0.225 J0.3897
G2 X29.25 Y19.6 I0.225 J-0.3897
G2 X28.7855 Y19.1502 I-0.45 J0.0
G0 Z3.0
G0 X18.1496 Y19.5818
G0 Z0.1
G1 F300.0 Z-0.4
G2 F800.0 X17.475 Y19.2103 I-0.4496 J0.0182
G2 Y19.9897 I0.225 J0.3897
G2 X18.15 Y19.6 I0.225 J-0.3897
G2 X18.1496 Y19.5818 I-0.45 J0.0
G1 F300.0 Z-0.8
G2 F800.0 X17.475 Y19.2103 I-0.4496 J0.0182
G2 Y19.9897 I0.225 J0.3897
G2 X18.15 Y19.6 I0.225 J-0.3897
G2 X18.1496 Y19.5818 I-0.45 J0.0
G1 F300.0 Z-1.2
G2 F800.0 X17.475 Y19.2103 I-0.4496 J0.0182
G2 Y19.9897 I0.225 J0.3897
G2 X18.15 Y19.6 I0.225 J-0.3897
G2 X18.1496 Y19.5818 I-0.45 J0.0
G0 Z3.0
G0 X4.25 Y19.5994
G0 Z0.1
G1 F300.0 Z-0.4
G2 F800.0 X3.575 Y19.2103 I-0.45 J0.0006
G2 Y19.9897 I0.225 J0.3897
G2 X4.25 Y19.6 I0.225 J-0.3897
G2 Y19.5994 I-0.45 J0.0
G1 F300.0 Z-0.8
G2 F800.0 X3.575 Y19.2103 I-0.45 J0.0006
G2 Y19.9897 I0.225 J0.3897
G2 X4.25 Y19.6 I0.225 J-0.3897
G2 Y19.5994 I-0.45 J0.0
G1 F300.0 Z-1.2
G2 F800.0 X3.575 Y19.2103 I-0.45 J0.0006
G2 Y19.9897 I0.225 J0.3897
G2 X4.25 Y19.6 I0.225 J-0.3897
G2 Y19.5994 I-0.45 J0.0
G0 Z3.0
G0 X3.8145 Y6.0498
G0 Z0.1
G1 F300.0 Z-0.4
G2 F800.0 X4.25 Y5.6 I-0.0145 J-0.4498
G2 X3.575 Y5.2103 I-0.45 J0.0
G2 Y5.9897 I0.225 J0.3897
G2 X3.8145 Y6.0498 I0.225 J-0.3897
G1 F300.0 Z-0.8
G2 F800.0 X4.25 Y5.6 I-0.0145 J-0.4498
G2 X3.575 Y5.2103 I-0.45 J0.0
G2 Y5.9897 I0.225 J0.3897
G2 X3.8145 Y6.0498 I0.225 J-0.3897
G1 F300.0 Z-1.2
G2 F800.0 X4.25 Y5.6 I-0.0145 J-0.4498
G2 X3.575 Y5.2103 I-0.45 J0.0
G2 Y5.9897 I0.225 J0.3897
G2 X3.8145 Y6.0498 I0.225 J-0.3897
G0 Z3.0
G0 X42.25 Y5.6052
G0 Z0.1
G1 F300.0 Z-0.4
G2 F800.0 X42.475 Y5.9897 I0.45 J-0.0052
G2 X43.15 Y5.6 I0.225 J-0.3897
G2 X42.475 Y5.2103 I-0.45 J0.0
G2 X42.25 Y5.6052 I0.225 J0.3897
G1 F300.0 Z-0.8
G2 F800.0 X42.475 Y5.9897 I0.45 J-0.0052
G2 X43.15 Y5.6 I0.225 J-0.3897
G2 X42.475 Y5.2103 I-0.45 J0.0
G2 X42.25 Y5.6052 I0.225 J0.3897
G1 F300.0 Z-1.2
G2 F800.0 X42.475 Y5.9897 I0.45 J-0.0052
G2 X43.15 Y5.6 I0.225 J-0.3897
G2 X42.475 Y5.2103 I-0.45 J0.0
G2 X42.25 Y5.6052 I0.225 J0.3897
G0 Z3.0
G0 X42.6855 Y19.1502
G0 Z0.1
G1 F300.0 Z-0.4
G2 F800.0 X42.475 Y19.2103 I0.0145 J0.4498
G2 Y19.9897 I0.225 J0.3897
G2 X43.15 Y19.6 I0.225 J-0.3897
G2 X42.6855 Y19.1502 I-0.45 J0.0
G1 F300.0 Z-0.8
G2 F800.0 X42.475 Y19.2103 I0.0145 J0.4498
G2 Y19.9897 I0.225 J0.3897
G2 X43.15 Y19.6 I0.225 J-0.3897
G2 X42.6855 Y19.1502 I-0.45 J0.0
G1 F300.0 Z-1.2
G2 F800.0 X42.475 Y19.2103 I0.0145 J0.4498
G2 Y19.9897 I0.225 J0.3897
G2 X43.15 Y19.6 I0.225 J-0.3897
G2 X42.6855 Y19.1502 I-0.45 J0.0
( Contour2 )
S25000
G0 Z3.0
G0 X9.7 Y11.9
G0 Z0.1
G1 F300.0 Z-0.4
G1 F800.0 X1.5
G3 X1.0 Y11.4 I0.0 J-0.5
G1 Y7.15
G1 Y6.9 Z-0.2
G1 Y5.9
G1 Y5.65 Z-0.4
G1 Y1.4
G3 X1.5 Y0.9 I0.5 J0.0
G1 X19.9
G3 X20.4 Y1.4 I0.0 J0.5
G1 Y5.65
G1 Y5.9 Z-0.2
G1 Y6.9
G1 Y7.15 Z-0.4
G1 Y11.4
G3 X19.9 Y11.9 I-0.5 J0.0
G1 X11.7
G3 X11.2 Y11.4 I0.0 J-0.5
G2 X10.2 I-0.5 J0.0
G3 X9.7 Y11.9 I-0.5 J0.0
G1 F300.0 Z-0.8
G1 F800.0 X1.5
G3 X1.0 Y11.4 I0.0 J-0.5
G1 Y7.15
G1 Y6.9 Z-0.2
G1 Y5.9
G1 Y5.65 Z-0.8
G1 Y1.4
G3 X1.5 Y0.9 I0.5 J0.0
G1 X19.9
G3 X20.4 Y1.4 I0.0 J0.5
G1 Y5.65
G1 Y5.9 Z-0.2
G1 Y6.9
G1 Y7.15 Z-0.8
G1 Y11.4
G3 X19.9 Y11.9 I-0.5 J0.0
G1 X11.7
G3 X11.2 Y11.4 I0.0 J-0.5
G2 X10.2 I-0.5 J0.0
G3 X9.7 Y11.9 I-0.5 J0.0
G1 F300.0 Z-1.2
G1 F800.0 X1.5
G3 X1.0 Y11.4 I0.0 J-0.5
G1 Y7.15
G1 Y6.9 Z-0.2
G1 Y5.9
G1 Y5.65 Z-1.2
G1 Y1.4
G3 X1.5 Y0.9 I0.5 J0.0
G1 X19.9
G3 X20.4 Y1.4 I0.0 J0.5
G1 Y5.65
G1 Y5.9 Z-0.2
G1 Y6.9
G1 Y7.15 Z-1.2
G1 Y11.4
G3 X19.9 Y11.9 I-0.5 J0.0
G1 X11.7
G3 X11.2 Y11.4 I0.0 J-0.5
G2 X10.2 I-0.5 J0.0
G3 X9.7 Y11.9 I-0.5 J0.0
G0 Z3.0
G0 Y14.9
G0 Z0.1
G1 F300.0 Z-0.4
G1 F800.0 X19.9
G3 X20.4 Y15.4 I0.0 J0.5
G1 Y19.65
G1 Y19.9 Z-0.2
G1 Y20.9
G1 Y21.15 Z-0.4
G1 Y25.4
G3 X19.9 Y25.9 I-0.5 J0.0
G1 X11.7
G3 X11.2 Y25.4 I0.0 J-0.5
G2 X10.2 I-0.5 J0.0
G3 X9.7 Y25.9 I-0.5 J0.0
G1 X1.5
G3 X1.0 Y25.4 I0.0 J-0.5
G1 Y21.15
G1 Y20.9 Z-0.2
G1 Y19.9
G1 Y19.65 Z-0.4
G1 Y15.4
G3 X1.5 Y14.9 I0.5 J0.0
G1 X9.7
G1 F300.0 Z-0.8
G1 F800.0 X19.9
G3 X20.4 Y15.4 I0.0 J0.5
G1 Y19.65
G1 Y19.9 Z-0.2
G1 Y20.9
G1 Y21.15 Z-0.8
G1 Y25.4
G3 X19.9 Y25.9 I-0.5 J0.0
G1 X11.7
G3 X11.2 Y25.4 I0.0 J-0.5
G2 X10.2 I-0.5 J0.0
G3 X9.7 Y25.9 I-0.5 J0.0
G1 X1.5
G3 X1.0 Y25.4 I0.0 J-0.5
G1 Y21.15
G1 Y20.9 Z-0.2
G1 Y19.9
G1 Y19.65 Z-0.8
G1 Y15.4
G3 X1.5 Y14.9 I0.5 J0.0
G1 X9.7
G1 F300.0 Z-1.2
G1 F800.0 X19.9
G3 X20.4 Y15.4 I0.0 J0.5
G1 Y19.65
G1 Y19.9 Z-0.2
G1 Y20.9
G1 Y21.15 Z-1.2
G1 Y25.4
G3 X19.9 Y25.9 I-0.5 J0.0
G1 X11.7
G3 X11.2 Y25.4 I0.0 J-0.5
G2 X10.2 I-0.5 J0.0
G3 X9.7 Y25.9 I-0.5 J0.0
G1 X1.5
G3 X1.0 Y25.4 I0.0 J-0.5
G1 Y21.15
G1 Y20.9 Z-0.2
G1 Y19.9
G1 Y19.65 Z-1.2
G1 Y15.4
G3 X1.5 Y14.9 I0.5 J0.0
G1 X9.7
G0 Z3.0
G0 X26.0002 Y15.3851
G0 Z0.1
G1 F300.0 Z-0.4
G3 F800.0 X26.5 Y14.9 I0.4998 J0.0149
G1 X44.9
G3 X45.4 Y15.4 I0.0 J0.5
G1 Y19.65
G1 Y19.9 Z-0.2
G1 Y20.9
G1 Y21.15 Z-0.4
G1 Y25.4
G3 X44.9 Y25.9 I-0.5 J0.0
G1 X36.7
G3 X36.2 Y25.4 I0.0 J-0.5
G2 X35.2 I-0.5 J0.0
G3 X34.7 Y25.9 I-0.5 J0.0
G1 X26.5
G3 X26.0 Y25.4 I0.0 J-0.5
G1 Y21.15
G1 Y20.9 Z-0.2
G1 Y19.9
G1 Y19.65 Z-0.4
G1 Y15.4
G3 X26.0002 Y15.3851 I0.5 J0.0
G1 F300.0 Z-0.8
G3 F800.0 X26.5 Y14.9 I0.4998 J0.0149
G1 X44.9
G3 X45.4 Y15.4 I0.0 J0.5
G1 Y19.65
G1 Y19.9 Z-0.2
G1 Y20.9
G1 Y21.15 Z-0.8
G1 Y25.4
G3 X44.9 Y25.9 I-0.5 J0.0
G1 X36.7
G3 X36.2 Y25.4 I0.0 J-0.5
G2 X35.2 I-0.5 J0.0
G3 X34.7 Y25.9 I-0.5 J0.0
G1 X26.5
G3 X26.0 Y25.4 I0.0 J-0.5
G1 Y21.15
G1 Y20.9 Z-0.2
G1 Y19.9
G1 Y19.65 Z-0.8
G1 Y15.4
G3 X26.0002 Y15.3851 I0.5 J0.0
G1 F300.0 Z-1.2
G3 F800.0 X26.5 Y14.9 I0.4998 J0.0149
G1 X44.9
G3 X45.4 Y15.4 I0.0 J0.5
G1 Y19.65
G1 Y19.9 Z-0.2
G1 Y20.9
G1 Y21.15 Z-1.2
G1 Y25.4
G3 X44.9 Y25.9 I-0.5 J0.0
G1 X36.7
G3 X36.2 Y25.4 I0.0 J-0.5
G2 X35.2 I-0.5 J0.0
G3 X34.7 Y25.9 I-0.5 J0.0
G1 X26.5
G3 X26.0 Y25.4 I0.0 J-0.5
G1 Y21.15
G1 Y20.9 Z-0.2
G1 Y19.9
G1 Y19.65 Z-1.2
G1 Y15.4
G3 X26.0002 Y15.3851 I0.5 J0.0
G0 Z3.0
G0 X26.4378 Y11.8961
G0 Z0.1
G1 F300.0 Z-0.4
G3 F800.0 X26.0 Y11.4 I0.0622 J-0.4961
G1 Y7.15
G1 Y6.9 Z-0.2
G1 Y5.9
G1 Y5.65 Z-0.4
G1 Y1.4
G3 X26.5 Y0.9 I0.5 J0.0
G1 X44.9
G3 X45.4 Y1.4 I0.0 J0.5
G1 Y5.65
G1 Y5.9 Z-0.2
G1 Y6.9
G1 Y7.15 Z-0.4
G1 Y11.4
G3 X44.9 Y11.9 I-0.5 J0.0
G1 X36.7
G3 X36.2 Y11.4 I0.0 J-0.5
G2 X35.2 I-0.5 J0.0
G3 X34.7 Y11.9 I-0.5 J0.0
G1 X26.5
G3 X26.4378 Y11.8961 I0.0 J-0.5
G1 F300.0 Z-0.8
G3 F800.0 X26.0 Y11.4 I0.0622 J-0.4961
G1 Y7.15
G1 Y6.9 Z-0.2
G1 Y5.9
G1 Y5.65 Z-0.8
G1 Y1.4
G3 X26.5 Y0.9 I0.5 J0.0
G1 X44.9
G3 X45.4 Y1.4 I0.0 J0.5
G1 Y5.65
G1 Y5.9 Z-0.2
G1 Y6.9
G1 Y7.15 Z-0.8
G1 Y11.4
G3 X44.9 Y11.9 I-0.5 J0.0
G1 X36.7
G3 X36.2 Y11.4 I0.0 J-0.5
G2 X35.2 I-0.5 J0.0
G3 X34.7 Y11.9 I-0.5 J0.0
G1 X26.5
G3 X26.4378 Y11.8961 I0.0 J-0.5
G1 F300.0 Z-1.2
G3 F800.0 X26.0 Y11.4 I0.0622 J-0.4961
G1 Y7.15
G1 Y6.9 Z-0.2
G1 Y5.9
G1 Y5.65 Z-1.2
G1 Y1.4
G3 X26.5 Y0.9 I0.5 J0.0
G1 X44.9
G3 X45.4 Y1.4 I0.0 J0.5
G1 Y5.65
G1 Y5.9 Z-0.2
G1 Y6.9
G1 Y7.15 Z-1.2
G1 Y11.4
G3 X44.9 Y11.9 I-0.5 J0.0
G1 X36.7
G3 X36.2 Y11.4 I0.0 J-0.5
G2 X35.2 I-0.5 J0.0
G3 X34.7 Y11.9 I-0.5 J0.0
G1 X26.5
G3 X26.4378 Y11.8961 I0.0 J-0.5
G0 Z3.0
M5
M30
